!!!!SEGMENT: pl-wn--sd-xvi-qu-273--116_gomolka-mikolaj--mam-przecz-pana-milowac-ktory-z-laski-swojej.krn
!!!cenid: 15xx:321
!!!COM: Gomółka, Mikołaj
!!!COM-rismid: pe30013343
!!!CDT: ~1535->1591/04/30
!!!CNT: Polish
!!!GTL: Melodiae na psalterz polski
!!!OTL: CXVI. Mam przecz Pana miłować, który z łaski swojej
!!!ONB: Dilexi quoniam exaudiet Dominus:
!!!PDT: 1580
!!!AGN: Sacred
!!!SMS-siglum: PL-Wn
!!!SMS-shelfmark: SD XVI.Qu.273
!!!SMS-shelfwork: 116 G
!!!NIFC-rismid:
!!!ONB-nifc: Melodiae na psalterz polski
**kern	**text	**kern	**text	**kern	**text	**kern	**text
*part4	*part4	*part3	*part3	*part2	*part2	*part1	*part1
*staff4	*staff4	*staff3	*staff3	*staff2	*staff2	*staff1	*staff1
*clefF3	*	*clefC3	*	*clefC2	*	*clefG2	*
*k[b-]	*	*k[b-]	*	*k[b-]	*	*k[b-]	*
*F:	*	*F:	*	*F:	*	*F:	*
*M4/2	*	*M4/2	*	*M4/2	*	*M4/2	*
*met(C|)	*	*met(C|)	*	*met(C|)	*	*met(C|)	*
=1-	=1-	=1-	=1-	=1-	=1-	=1-	=1-
2F/	Mam	2c/	Mam	2f\	Mam	2a/	Mam
2F/	prʒécʒ	2A/	.	2.f\	prʒécʒ	2cc\	prʒécʒ
2BB-/	.	2.d\	prʒécʒ	.	.	2.b-/	.
.	.	.	.	4e/	.	.	.
2BB-/	pá-	.	.	2d/	pá-	.	.
.	.	4c/	.	.	.	4a/	pá-
=2-	=2-	=2-	=2-	=2-	=2-	=2-	=2-
2C/	-ná	2.c/	pá-	4e/	-ná	4g/	-ná
.	.	.	.	2f\	mi-	4f/	.
2C/	mi-	.	.	.	.	2g/	mi-
.	.	4B-/	-ná	4e/	-ł(ować,)	.	.
2F/	-ł(ować,)	4A/	mi-	2f\	któ-	2f/	-ł(ować,)
.	.	4G/	-ł(ować)	.	.	.	.
2F/	któ-	2F/	któ-	2c/	-ry	2a/	któ-
=3-	=3-	=3-	=3-	=3-	=3-	=3-	=3-
2E/	-ry	2G/	-ry	2c/	ʒ łá-	2g/	-ry
2D/	ʒ łá-	2A/	ʒ łá-	2d/	.	2f/	.
2BB-/	-ſki	2B-/	-ſki	2d/	-ſki	2f/	ʒ łá-
2C/	ſwo-	2G/	.	4c/	ſwo-	2e/	-ſki
.	.	.	.	4B-/	.	.	.
=4-	=4-	=4-	=4-	=4-	=4-	=4-	=4-
1F\	(-jej)	1F/	.	1A/	(-jej)	1f/	ſwo-
2F/	Rác-	2.f\	ſwo-	2.a\	Rá-	2a/	(-jej)
2F/	(-zył)	.	.	.	.	2cc\	.
.	.	4e\	(-jej)	4g\	-c(zył)	.	.
=5-	=5-	=5-	=5-	=5-	=5-	=5-	=5-
2B-\	u-	4d\	Rác-	2.f\	uſ-	4b-\	Rá-
.	.	4c\	(-zył)	.	.	4cc\	-c(zył)
2G\	-ſły-	2B-/	uſ-	.	.	4dd\	.
.	.	.	.	4g\	-ły-	4ee\	uſ-
2F\	(-szeć)	2c/	-ł(y-	2a\	(-szeć)	2ff\	-ły-
2c\	głos	2e\	-szeć)	2g\	głos	2gg\	(-szeć)
=6-	=6-	=6-	=6-	=6-	=6-	=6-	=6-
2.d\	.	2f\	głos	2b-\	proś-	2.ff\	głos
.	.	2f\	.	1a\	(-by)	.	.
4c\	proś-	.	.	.	.	4ee\	proś-
2B-\	(-by)	2f\	proś-	.	.	2dd\	(-by)
2B-\	mo-	4e\	(-by)	2g\	mo-	2dd\	mo-
.	.	4d\	mo-	.	.	.	.
=7-	=7-	=7-	=7-	=7-	=7-	=7-	=7-
!!LO:PB:g=original
1A\	-iéy.	1e\	-iéy.	1a\	-iéy.	1cc\	-iéy.
2D/	Dał	2d\	Dał	2a\	.	2ff\	.
2C#/X	.	2e\	mi	2a\	Dał	2ee\	Dał
=8-	=8-	=8-	=8-	=8-	=8-	=8-	=8-
2D/	mi	2.f\	u-	2.a\	.	2.dd\	mi
2A\	ucho	.	.	.	.	.	.
.	.	4e\	-cho	4g\	mi	4cc\	u-
2B-\	łá-	4d\	.	2f\	u-	2b-/	-cho
.	.	4c\	łá(skawe)	.	.	.	.
2G\	(-skawe)	4d\	te-	2g\	-cho	2b-/	łá(skawe)
.	.	4e\	-go	.	.	.	.
=9-	=9-	=9-	=9-	=9-	=9-	=9-	=9-
2F/	tego	2.f\	będę	2c/	łá-	2a/	te-
2F/	.	.	.	2c/	(-skawe)	2cc\	-go
.	.	4e\	wʒy-	.	.	.	.
2G\	będę	2d\	.	2g\	te-	2b-/	bę-
2A\	.	2c/	(-wał,)	4f\	-go	2a/	-dę
.	.	.	.	4e\	bę-	.	.
=10-	=10-	=10-	=10-	=10-	=10-	=10-	=10-
2B-\	wʒy(wał)	4B-/	Pó-	4d/	-dę	2f/	wʒy-
.	.	2c/	-ki	4c/	.	.	.
2G\	Pó-	.	.	4d/	wʒy-	2g/	(-wał,)
.	.	4B-/	duch	4e/	(-wał,)	.	.
1F\	-.	1c\	.	1f\	Pó-	1a/	Pó-
=11-	=11-	=11-	=11-	=11-	=11-	=11-	=11-
1D/	-ki	1d\	.	1f\	-ki	1dd\	-ki
2G\	duch	2d\	we	2g\	.	2dd\	duch
2G\	.	2d\	m(nie)	2g\	duch	2b-/	.
=12-	=12-	=12-	=12-	=12-	=12-	=12-	=12-
1C/	we	1e\	bę-	1g\	.	2.cc\	.
.	.	.	.	.	.	4b-/	we
2F/	m(nie)	2f\	.	2c/	we	2a/	m(nie)
2D/	bę-	2f\	-d(zie)	2d/	.	2dd\	bę-
=13-	=13-	=13-	=13-	=13-	=13-	=13-	=13-
2G\	-d(zie)	2d\	prʒe-	2d/	m(nie)	2b-/	-d(zie)
2G\	prʒe-	2d\	.	4g\	bę-	2b-/	.
.	.	.	.	4f\	-d(zie)	.	.
1C/	-by-	1c\	-by-	4e\	prʒe-	2.cc\	prʒe-
.	.	.	.	4f\	.	.	.
.	.	.	.	2e/	-by-	.	.
.	.	.	.	.	.	4b-/	-by-
=14-	=14-	=14-	=14-	=14-	=14-	=14-	=14-
000F\	-wał.	000c\	-wał.	000f\	-wał.	000a/	-wał.
==-	==-	==-	==-	==-	==-	==-	==-
*-	*-	*-	*-	*-	*-	*-	*-
!!!RDF**kern: l = terminal long
!!!system-decoration: s1,s2,s3,s4
!!!ENC: Leszek Kubiak
!!!END: data 2020-02-19
!!!URL-scan: https://polona.pl/item/melodiae-na-psalterz-polski,Nzk3MTM4ODQ/269 Scan on Polona
!!!IIIF: https://polona.pl/iiif/item/Nzk3MTM4ODQ/manifest.json
